front/src/Assets/image/sidebar/comment_light.svg

<svg width="24" height="24" viewBox="0 0 24 24" fill="none" xmlns="http://www.w3.org/2000/svg">
<path d="M4.82698 7.13803L5.27248 7.36502L4.82698 7.13803ZM5.2682 18.7318L5.62175 19.0854H5.62175L5.2682 18.7318ZM17.862 16.173L17.635 15.7275L17.862 16.173ZM19.173 14.862L18.7275 14.635L19.173 14.862ZM19.173 7.13803L18.7275 7.36502V7.36502L19.173 7.13803ZM17.862 5.82698L18.089 5.38148V5.38148L17.862 5.82698ZM6.13803 5.82698L6.36502 6.27248L6.13803 5.82698ZM7.20711 16.7929L7.56066 17.1464L7.20711 16.7929ZM5 10.3C5 9.45167 5.00039 8.84549 5.03921 8.37032C5.07756 7.90099 5.15089 7.60366 5.27248 7.36502L4.38148 6.91103C4.17609 7.31413 4.08593 7.75771 4.04253 8.28889C3.99961 8.81423 4 9.46817 4 10.3H5ZM5 11.5V10.3H4V11.5H5ZM4 11.5V16.5H5V11.5H4ZM4 16.5V18.4136H5V16.5H4ZM4 18.4136C4 19.26 5.02329 19.6838 5.62175 19.0854L4.91465 18.3782C4.91754 18.3753 4.92812 18.368 4.94323 18.3654C4.9556 18.3632 4.96421 18.3654 4.96913 18.3674C4.97406 18.3695 4.98164 18.374 4.98888 18.3843C4.99771 18.3968 5 18.4095 5 18.4136H4ZM5.62175 19.0854L7.56066 17.1464L6.85355 16.4393L4.91465 18.3782L5.62175 19.0854ZM14.7 16H7.91421V17H14.7V16ZM17.635 15.7275C17.3963 15.8491 17.099 15.9224 16.6297 15.9608C16.1545 15.9996 15.5483 16 14.7 16V17C15.5318 17 16.1858 17.0004 16.7111 16.9575C17.2423 16.9141 17.6859 16.8239 18.089 16.6185L17.635 15.7275ZM18.7275 14.635C18.4878 15.1054 18.1054 15.4878 17.635 15.7275L18.089 16.6185C18.7475 16.283 19.283 15.7475 19.6185 15.089L18.7275 14.635ZM19 11.7C19 12.5483 18.9996 13.1545 18.9608 13.6297C18.9224 14.099 18.8491 14.3963 18.7275 14.635L19.6185 15.089C19.8239 14.6859 19.9141 14.2423 19.9575 13.7111C20.0004 13.1858 20 12.5318 20 11.7H19ZM19 10.3V11.7H20V10.3H19ZM18.7275 7.36502C18.8491 7.60366 18.9224 7.90099 18.9608 8.37032C18.9996 8.84549 19 9.45167 19 10.3H20C20 9.46817 20.0004 8.81423 19.9575 8.28889C19.9141 7.75771 19.8239 7.31413 19.6185 6.91103L18.7275 7.36502ZM17.635 6.27248C18.1054 6.51217 18.4878 6.89462 18.7275 7.36502L19.6185 6.91103C19.283 6.25247 18.7475 5.71703 18.089 5.38148L17.635 6.27248ZM14.7 6C15.5483 6 16.1545 6.00039 16.6297 6.03921C17.099 6.07756 17.3963 6.15089 17.635 6.27248L18.089 5.38148C17.6859 5.17609 17.2423 5.08593 16.7111 5.04253C16.1858 4.99961 15.5318 5 14.7 5V6ZM9.3 6H14.7V5H9.3V6ZM6.36502 6.27248C6.60366 6.15089 6.90099 6.07756 7.37032 6.03921C7.84549 6.00039 8.45167 6 9.3 6V5C8.46817 5 7.81423 4.99961 7.28889 5.04253C6.75771 5.08593 6.31413 5.17609 5.91103 5.38148L6.36502 6.27248ZM5.27248 7.36502C5.51217 6.89462 5.89462 6.51217 6.36502 6.27248L5.91103 5.38148C5.25247 5.71703 4.71703 6.25247 4.38148 6.91103L5.27248 7.36502ZM7.56066 17.1464C7.65443 17.0527 7.78161 17 7.91421 17V16C7.51639 16 7.13486 16.158 6.85355 16.4393L7.56066 17.1464Z" fill="#666666"/>
<path d="M8.5 9.5L15.5 9.5" stroke="#666666" stroke-linecap="round" stroke-linejoin="round"/>
<path d="M8.5 12.5L13.5 12.5" stroke="#666666" stroke-linecap="round" stroke-linejoin="round"/>
</svg>

<svg xmlns="http://www.w3.org/2000/svg" fill="none" viewBox="0 0 24 24">
  <path fill="#666" d="M4.827 7.138l.445.227-.445-.227zm.441 11.594l.354.353-.354-.353zm12.594-2.559l-.227-.445.227.445zm1.311-1.311l-.445-.227.445.227zm0-7.724l-.445.227.445-.227zm-1.311-1.311l.227-.446-.227.446zm-11.724 0l.227.445-.227-.445zm1.07 10.966l.353.353-.354-.353zM5 10.3c0-.848 0-1.455.04-1.93.038-.469.11-.766.232-1.005l-.89-.454c-.206.403-.296.847-.34 1.378C4 8.814 4 9.469 4 10.3h1zm0 1.2v-1.2H4v1.2h1zm-1 0v5h1v-5H4zm0 5v1.914h1V16.5H4zm0 1.914c0 .846 1.023 1.27 1.622.671l-.707-.707a.059.059 0 01.028-.013.046.046 0 01.026.002.059.059 0 01.03.046H4zm1.622.671l1.939-1.939-.707-.707-1.94 1.94.708.706zM14.7 16H7.914v1H14.7v-1zm2.935-.273c-.239.122-.536.195-1.005.234-.476.039-1.082.039-1.93.039v1c.832 0 1.486 0 2.011-.043.531-.043.975-.133 1.378-.338l-.454-.892zm1.092-1.092a2.5 2.5 0 01-1.092 1.092l.454.892a3.5 3.5 0 001.53-1.53l-.892-.454zM19 11.7c0 .848 0 1.455-.04 1.93-.038.469-.11.766-.233 1.005l.892.454c.205-.403.295-.847.338-1.378.043-.525.043-1.18.043-2.011h-1zm0-1.4v1.4h1v-1.4h-1zm-.273-2.935c.122.239.195.536.234 1.005C19 8.845 19 9.452 19 10.3h1c0-.832 0-1.486-.043-2.011-.043-.531-.133-.975-.338-1.378l-.892.454zm-1.092-1.093a2.5 2.5 0 011.092 1.093l.892-.454a3.5 3.5 0 00-1.53-1.53l-.454.891zM14.7 6c.848 0 1.454 0 1.93.04.469.038.766.11 1.005.232l.454-.89c-.403-.206-.847-.296-1.378-.34C16.186 5 15.531 5 14.7 5v1zM9.3 6h5.4V5H9.3v1zm-2.935.272c.239-.121.536-.194 1.005-.233C7.845 6 8.452 6 9.3 6V5c-.832 0-1.486 0-2.011.043-.531.043-.975.133-1.378.338l.454.891zM5.272 7.365a2.5 2.5 0 011.093-1.093l-.454-.89a3.5 3.5 0 00-1.53 1.529l.891.454zm2.289 9.781A.5.5 0 017.914 17v-1a1.5 1.5 0 00-1.06.44l.707.706z"/>
  <path stroke="#666" stroke-linecap="round" stroke-linejoin="round" d="M8.5 9.5h7m-7 3h5"/>
</svg>
